friend/src/images/footer-logo.svg

<svg width="266" height="81" viewBox="0 0 266 81" fill="none" xmlns="http://www.w3.org/2000/svg">
<path d="M44.1536 42.7376V70.2057C44.1536 72.5186 43.3046 74.2047 41.2835 74.8349C39.7952 75.2539 38.5233 75.3595 36.6121 75.4651V78.7282H63.5884V75.4651C61.5707 75.3595 58.4908 75.0427 56.6828 74.3069C54.7717 73.5712 53.8127 71.9907 53.8127 69.6712V41.8897C55.088 39.5735 59.23 34.6243 64.6472 34.6243C64.544 35.1522 63.908 37.0461 63.908 37.993C63.908 41.5729 65.9258 43.0478 69.3253 43.0478C72.9345 43.0478 75.2719 39.7846 75.2719 35.8913C75.2719 31.9979 72.0855 28.9426 68.1533 28.9426C63.695 28.9426 58.594 31.5723 54.0292 37.3595H53.8161V30.203L53.0736 29.4672L20.2838 30.3086H20.2872C20.2872 28.5202 20.3937 26.5175 20.3937 24.9403C20.9231 8.83892 24.2161 3.57627 30.9085 3.57627C31.7542 3.57627 32.8197 3.67855 33.4557 4.30875C33.4557 5.8892 32.8197 8.51887 32.8197 10.0993C32.8197 13.6792 36.5355 14.8341 38.9794 14.8341C42.6953 14.8341 44.713 11.3597 44.713 9.36024C44.713 4.83667 41.42 0.0986328 33.4557 0.0986328C28.0384 0.0986328 22.195 1.88694 17.8432 6.5161C12.6358 11.9899 10.618 19.3576 10.618 28.0913V30.302H0V34.9311H10.618V70.1892C10.618 72.5021 9.77233 74.1882 7.7546 74.8184C6.26628 75.2374 4.99438 75.343 3.08319 75.4486V78.7117H30.0595V75.4486C28.1483 75.343 24.7488 74.924 23.1539 74.2905C21.2427 73.5547 20.2838 71.9742 20.2838 69.6547V34.9245H33.4557C33.4557 34.9245 44.1536 34.8057 44.1536 42.7146V42.7376Z" fill="#161616"/>
<path d="M79.1242 78.7287V75.4656C81.0353 75.36 82.3106 75.2544 83.7956 74.8354C85.8133 74.2052 86.659 72.5191 86.659 70.2062V40.7354C86.4492 38.528 85.4903 36.6341 83.7956 35.4727C82.5203 34.6313 79.4405 33.8956 77.5293 33.79V30.6291L95.5823 29.471L96.3248 30.2068V69.5694C96.3248 71.8823 97.2837 73.5684 99.1949 74.3041C100.79 74.9343 101.955 75.3534 103.866 75.4622V78.7254H79.1208L79.1242 78.7287ZM90.5946 16.3193C87.0885 16.3193 84.1152 13.3696 84.1152 9.89853C84.1152 6.42749 87.0919 3.2699 90.5946 3.2699C94.5235 3.2699 97.2837 6.11404 97.2837 9.4795C97.2837 13.1617 94.4136 16.3226 90.5946 16.3226V16.3193Z" fill="#161616"/>
<path d="M129.531 79.9912C113.176 79.9912 105.531 68.2055 105.531 53.998C105.531 41.0509 114.132 28.7373 128.472 28.7373C142.813 28.7373 148.756 38.4212 148.756 49.3689V52.1041H115.936C115.936 65.6782 120.714 74.6263 132.508 74.6263C139.729 74.6263 143.022 71.2576 146.632 65.2591L149.925 67.2586C146.102 74.7319 138.667 79.9945 129.534 79.9945L129.531 79.9912ZM128.362 32.3139C121.567 32.3139 116.256 38.5235 115.936 48.4153L138.561 48.2042C138.561 40.6286 136.65 32.3139 128.366 32.3139H128.362Z" fill="#161616"/>
<path d="M183.237 78.7275V75.4644C185.151 75.3588 186.743 75.2532 188.231 74.8342C190.249 74.204 191.101 72.5179 191.101 70.205V45.8912C191.101 38.6291 186.853 34.6269 182.285 34.6269C174.53 34.6269 170.178 39.6816 169.006 42.1001V69.6738C169.006 71.99 169.965 73.4649 171.876 74.3095C173.471 75.042 175.063 75.3588 176.871 75.4677V78.7308H151.806V75.4677C153.717 75.3621 154.992 75.2565 156.477 74.8375C158.495 74.2073 159.347 72.5212 159.347 70.2083V40.7375C159.134 38.5301 158.175 36.3195 156.477 35.1614C155.202 34.32 153.184 33.8977 151.27 33.7921V30.6312L168.264 29.4731L169.006 30.2089V37.3654H169.219C173.255 33.472 177.29 28.7373 186.427 28.7373C196.302 28.7373 200.87 35.3659 200.87 45.3699V69.7827C200.87 72.0989 201.716 73.5738 203.627 74.4118C205.116 75.042 206.387 75.3621 208.305 75.4677V78.7308H183.237V78.7275Z" fill="#161616"/>
<path d="M247.794 78.9407L247.051 78.205V73.6781L246.625 73.5758C244.291 75.9943 239.19 80.0989 232.501 80.0989C220.079 80.0989 209.773 69.8903 209.773 53.7856C209.773 39.0502 221.56 28.736 234.093 28.736C240.782 28.736 245.67 31.1579 246.945 31.7914V12.6346C246.732 10.424 245.886 7.68545 244.185 6.53063C242.167 5.16135 237.918 4.63674 234.839 4.42557V1.37686L255.868 0.21875L256.611 0.951232V68.4154C256.717 70.9428 257.67 72.4144 259.371 73.5758C260.646 74.4139 263.723 74.5195 265.637 74.625V77.7826L247.794 78.944V78.9407ZM246.945 40.8418C245.776 37.3675 242.273 32.4248 234.945 32.4248C226.874 32.4248 220.608 40.8418 220.608 54.947C220.608 65.1556 225.066 74.8395 236.114 74.8395C241.211 74.8395 244.185 72.4177 246.948 69.4713V40.8418H246.945Z" fill="#161616"/>
</svg>

<svg xmlns="http://www.w3.org/2000/svg" width="266" height="81" fill="none"><path fill="#161616" d="M44.154 42.738v27.468c0 2.313-.85 3.999-2.87 4.629-1.489.419-2.76.525-4.672.63v3.263h26.976v-3.263c-2.017-.106-5.097-.422-6.905-1.158-1.911-.736-2.87-2.316-2.87-4.636V41.89c1.275-2.316 5.417-7.266 10.834-7.266-.103.528-.739 2.422-.739 3.369 0 3.58 2.018 5.055 5.417 5.055 3.61 0 5.947-3.263 5.947-7.157 0-3.893-3.187-6.948-7.119-6.948-4.458 0-9.559 2.63-14.124 8.416h-.213v-7.156l-.742-.736-32.79.842h.003c0-1.789.107-3.792.107-5.369.53-16.101 3.822-21.364 10.515-21.364.845 0 1.91.103 2.547.733 0 1.58-.636 4.21-.636 5.79 0 3.58 3.715 4.735 6.16 4.735 3.715 0 5.733-3.474 5.733-5.474C44.713 4.837 41.42.1 33.456.1c-5.418 0-11.261 1.788-15.613 6.417-5.207 5.474-7.225 12.842-7.225 21.575v2.211H0v4.63h10.618v35.257c0 2.313-.846 4-2.863 4.63-1.489.418-2.76.524-4.672.63v3.263H30.06v-3.263c-1.91-.106-5.31-.525-6.905-1.159-1.911-.735-2.87-2.316-2.87-4.635v-34.73h13.172s10.698-.12 10.698 7.79zM79.124 78.729v-3.263c1.911-.106 3.187-.212 4.672-.63 2.017-.63 2.863-2.317 2.863-4.63v-29.47c-.21-2.208-1.169-4.102-2.863-5.263-1.276-.842-4.356-1.577-6.267-1.683v-3.16l18.053-1.159.743.736v39.362c0 2.313.959 4 2.87 4.735 1.595.63 2.76 1.05 4.671 1.158v3.263H79.121zm11.47-62.41c-3.505 0-6.479-2.95-6.479-6.42 0-3.472 2.977-6.63 6.48-6.63 3.928 0 6.689 2.845 6.689 6.21 0 3.683-2.87 6.844-6.69 6.844zM129.531 79.991c-16.355 0-24-11.785-24-25.993 0-12.947 8.601-25.26 22.941-25.26 14.341 0 20.284 9.683 20.284 20.63v2.736h-32.82c0 13.574 4.778 22.522 16.572 22.522 7.221 0 10.514-3.368 14.124-9.367l3.293 2c-3.823 7.473-11.258 12.736-20.391 12.736zm-1.169-47.677c-6.795 0-12.106 6.21-12.426 16.101l22.625-.21c0-7.576-1.911-15.891-10.195-15.891zM183.237 78.728v-3.264c1.914-.105 3.506-.21 4.994-.63 2.018-.63 2.87-2.316 2.87-4.629V45.891c0-7.262-4.248-11.264-8.816-11.264-7.755 0-12.107 5.055-13.279 7.473v27.574c0 2.316.959 3.79 2.87 4.635 1.595.733 3.187 1.05 4.995 1.159v3.263h-25.065v-3.263c1.911-.106 3.186-.212 4.671-.63 2.018-.63 2.87-2.317 2.87-4.63v-29.47c-.213-2.208-1.172-4.419-2.87-5.577-1.275-.841-3.293-1.263-5.207-1.369v-3.16l16.994-1.159.742.736v7.156h.213c4.036-3.893 8.071-8.628 17.208-8.628 9.875 0 14.443 6.629 14.443 16.633v24.413c0 2.316.846 3.79 2.757 4.629 1.489.63 2.76.95 4.678 1.056v3.263h-25.068zM247.794 78.94l-.743-.735v-4.527l-.426-.102c-2.334 2.418-7.435 6.523-14.124 6.523-12.422 0-22.728-10.209-22.728-26.313 0-14.736 11.787-25.05 24.32-25.05a28.9 28.9 0 0 1 12.852 3.055V12.635c-.213-2.211-1.059-4.95-2.76-6.104-2.018-1.37-6.267-1.894-9.346-2.105v-3.05L255.868.22l.743.732v67.464c.106 2.528 1.059 4 2.76 5.16 1.275.839 4.352.944 6.266 1.05v3.158l-17.843 1.161zm-.849-38.098c-1.169-3.474-4.672-8.417-12-8.417-8.071 0-14.337 8.417-14.337 22.522 0 10.209 4.458 19.893 15.506 19.893 5.097 0 8.071-2.422 10.834-5.369v-28.63z"/></svg>
